assets/Peanuts/Flat/peanuts_flat.svg

<svg width="32" height="32" viewBox="0 0 32 32" fill="none" xmlns="http://www.w3.org/2000/svg">
<path d="M7.81276 29.7356C6.44227 29.4097 4.90778 28.4144 4.29868 27.8506C3.38501 26.8641 2.29565 25.0671 2.04966 22.6712C1.80368 20.2754 2.50649 19.1479 3.38502 17.4567C4.26354 15.7654 6.70303 14.0846 8.94174 13.9637C11.166 13.8435 11.9117 13.3752 12.7386 12.4788C13.613 11.531 13.8663 10.4585 14.0069 8.83776C14.1474 7.217 15.0404 5.22229 16.8348 3.78292C18.4162 2.51451 20.7169 1.44092 24.1607 2.32176C27.6045 3.20261 29.0027 5.89996 29.5649 7.37978C30.1272 8.8596 30.3933 11.6851 28.7769 14.3981C27.1604 17.1111 24.489 18.0003 22.8374 18.0707C21.1857 18.1412 19.9363 18.866 19.1632 19.7821C18.3901 20.6982 18.2496 21.4381 18.109 23.0588C17.9685 24.6796 17.1778 26.7055 14.8585 28.5024C12.5392 30.2994 9.53904 30.1461 7.81276 29.7356Z" fill="#F3AD61"/>
<path d="M21.5726 2.31238C21.777 2.45944 21.9637 2.61095 21.9104 2.7179C21.857 2.82485 21.6393 2.94517 21.2526 3.06549C20.8659 3.18581 20.0926 3.53339 19.8215 3.70273C19.5504 3.87206 19.1548 3.98347 18.9593 3.82305C18.8631 3.74417 18.768 3.65452 18.6851 3.57634C18.5994 3.49552 18.5267 3.42696 18.4792 3.39525C18.3859 3.33286 18.3459 3.24374 18.4792 3.11451C18.6126 2.98527 19.4215 2.55302 19.6837 2.4327C19.9459 2.31239 20.617 2.1074 20.897 2.09403C21.177 2.08066 21.3682 2.16533 21.5726 2.31238Z" fill="#D3883E"/>
<path d="M25.1216 5.52717C24.8229 5.28935 24.475 5.20831 24.243 5.4479C23.9004 5.77675 23.18 6.47849 23.0395 6.65466C22.8638 6.87487 22.6617 7.19197 22.9253 7.45623C23.1893 7.72093 24.2168 8.75117 24.4802 9.02413C24.7438 9.29719 25.0864 9.25315 25.2797 9.06817C25.473 8.8832 26.3164 8.0552 26.4921 7.8438L26.5116 7.82042C26.6844 7.61357 26.8931 7.36374 26.5799 7.0158C26.3199 6.72689 25.4993 5.903 25.1216 5.52717Z" fill="#D3883E"/>
<path d="M29.3097 10.5568C29.3668 10.363 29.5821 10.4775 29.7095 10.6185C29.8088 10.7084 29.9203 10.9135 29.8632 11.2439C29.8061 11.5742 29.6875 12.019 29.5294 12.4198C29.3712 12.8206 28.9583 13.5957 28.91 13.6794C28.8617 13.7631 28.7914 13.7983 28.686 13.7234C28.6016 13.6635 28.4546 13.4812 28.3917 13.3975C28.2248 13.2037 28.2862 12.9703 28.3565 12.8558C28.3907 12.8001 28.4665 12.638 28.5546 12.4497C28.6475 12.2511 28.754 12.0232 28.8397 11.8605C29.0066 11.5433 29.2526 10.7506 29.3097 10.5568Z" fill="#D3883E"/>
<path d="M24.0542 12.3468C23.7783 12.1023 23.4832 11.9608 23.1303 12.231C22.9462 12.372 22.8074 12.485 22.684 12.5855C22.571 12.6775 22.4708 12.7591 22.3604 12.8421C22.2441 12.9296 22.0887 13.0318 21.941 13.1289C21.7954 13.2246 21.6572 13.3155 21.5712 13.3825C21.398 13.5176 21.2119 13.8007 21.3916 14.013C21.5712 14.2252 22.508 15.1516 22.694 15.2803C22.8801 15.4089 23.2651 15.6727 23.7591 15.3189C23.8401 15.2609 23.9282 15.1982 24.02 15.1331C24.488 14.8006 25.0482 14.4027 25.2091 14.2252C25.4016 14.013 25.5492 13.7685 25.2797 13.524C25.0102 13.2796 24.3494 12.6363 24.0542 12.3468Z" fill="#D3883E"/>
<path d="M17.6447 6.84844C17.9609 6.51372 18.2069 6.71632 18.4793 7.0158C18.6952 7.25933 19.0665 7.62755 19.3704 7.92893C19.4623 8.01999 19.5479 8.10494 19.6213 8.17852C19.9376 8.49562 19.6125 8.96247 19.3929 9.19149C19.1733 9.42051 18.6725 10.1868 18.4002 10.6097C18.1519 10.995 17.9037 10.7803 17.702 10.6059C17.6826 10.5891 17.6632 10.5723 17.6447 10.5568C17.5332 10.4637 17.304 10.2156 17.0686 9.96077C16.8585 9.73337 16.6434 9.50057 16.5026 9.36766C16.2039 9.08579 16.3444 8.61894 16.5026 8.34588C16.6607 8.07282 17.3284 7.18317 17.6447 6.84844Z" fill="#D3883E"/>
<path d="M8.83271 18.994C9.1086 19.2385 9.40374 19.38 9.75662 19.1098C9.94073 18.9689 10.0794 18.8559 10.2028 18.7555C10.3156 18.6636 10.4163 18.5816 10.5266 18.4987C10.6429 18.4112 10.7983 18.309 10.946 18.2119C11.0916 18.1162 11.2297 18.0254 11.3157 17.9583C11.489 17.8232 11.675 17.5402 11.4954 17.3279C11.3157 17.1156 10.379 16.1892 10.1929 16.0606C10.0069 15.9319 9.62189 15.6682 9.12785 16.022C9.04688 16.08 8.95868 16.1426 8.86694 16.2078C8.39889 16.5402 7.83876 16.9381 7.67782 17.1156C7.48534 17.3279 7.33777 17.5723 7.60724 17.8168C7.87672 18.0612 8.53757 18.7045 8.83271 18.994Z" fill="#D3883E"/>
<path d="M2.80533 20.9844C2.74822 21.1782 2.53298 21.0637 2.4056 20.9228C2.30627 20.8328 2.19475 20.6277 2.25186 20.2974C2.30896 19.9671 2.42756 19.5222 2.5857 19.1214C2.74383 18.7207 3.15673 17.9455 3.20505 17.8618C3.25337 17.7782 3.32365 17.7429 3.42907 17.8178C3.51341 17.8777 3.66042 18.06 3.72338 18.1437C3.8903 18.3375 3.8288 18.5709 3.75852 18.6854C3.72432 18.7411 3.64853 18.9032 3.56048 19.0915C3.46758 19.2901 3.36103 19.518 3.27533 19.6808C3.10841 19.9979 2.86243 20.7906 2.80533 20.9844Z" fill="#D3883E"/>
<path d="M7.29456 26.1418C7.59326 26.3796 7.94116 26.4606 8.17308 26.2211C8.51571 25.8922 9.23609 25.1905 9.37666 25.0143C9.55236 24.7941 9.75442 24.477 9.49087 24.2127C9.22731 23.9485 8.19944 22.9179 7.93588 22.6448C7.67233 22.3718 7.32971 22.4158 7.13643 22.6008C6.94316 22.7858 6.09978 23.6138 5.92407 23.8252L5.90457 23.8485C5.73177 24.0554 5.52306 24.3052 5.83622 24.6532C6.09626 24.9421 6.9168 25.766 7.29456 26.1418Z" fill="#D3883E"/>
<path d="M10.9916 29.5797C10.7872 29.4326 10.6005 29.2811 10.6538 29.1742C10.7072 29.0672 10.9249 28.9469 11.3116 28.8266C11.6983 28.7063 12.4716 28.3587 12.7427 28.1894C13.0138 28.02 13.4094 27.9086 13.6049 28.069C13.7011 28.1479 13.7962 28.2376 13.8791 28.3157C13.9648 28.3966 14.0375 28.4651 14.0849 28.4968C14.1783 28.5592 14.2183 28.6483 14.0849 28.7776C13.9516 28.9068 13.1427 29.3391 12.8805 29.4594C12.6183 29.5797 11.9472 29.7847 11.6672 29.798C11.3872 29.8114 11.196 29.7267 10.9916 29.5797Z" fill="#D3883E"/>
<path d="M14.8762 24.4329C14.5599 24.7677 14.3139 24.5651 14.0416 24.2656C13.8257 24.0221 13.4545 23.654 13.1506 23.3526C13.0588 23.2616 12.9729 23.1764 12.8995 23.1029C12.5833 22.7858 12.9083 22.3189 13.1279 22.0899C13.3476 21.8609 13.8483 21.0945 14.1207 20.6717C14.3689 20.2863 14.6171 20.5011 14.8188 20.6755C14.8384 20.6924 14.8575 20.709 14.8762 20.7246C14.9876 20.8177 15.2168 21.0658 15.4523 21.3206C15.6623 21.548 15.8774 21.7808 16.0183 21.9137C16.317 22.1956 16.1764 22.6624 16.0183 22.9355C15.8601 23.2086 15.1925 24.0982 14.8762 24.4329Z" fill="#D3883E"/>
<path d="M15.6932 17.5976C16.0007 17.8883 16.4136 17.9499 16.6508 17.7121C16.8882 17.4741 17.8192 16.5405 18.0037 16.3644C18.1882 16.1882 18.4517 15.7831 18.1355 15.4483C18.0661 15.3749 17.9744 15.2761 17.8703 15.164C17.4996 14.7647 16.9718 14.1963 16.7386 14.0037C16.4399 13.7571 16.071 13.6602 15.8162 13.9069C15.5614 14.1535 14.6741 15.0343 14.4633 15.2722C14.2524 15.51 13.9801 15.8535 14.3315 16.2235C14.609 16.5156 15.0727 16.9782 15.4328 17.3376C15.5288 17.4333 15.6174 17.5217 15.6932 17.5976Z" fill="#D3883E"/>
</svg>

<svg xmlns="http://www.w3.org/2000/svg" width="32" height="32" fill="none"><path fill="#F3AD61" d="M7.813 29.736c-1.37-.326-2.905-1.322-3.514-1.885-.914-.987-2.003-2.784-2.25-5.18-.245-2.396.457-3.523 1.336-5.214.879-1.692 3.318-3.372 5.557-3.493 2.224-.12 2.97-.589 3.797-1.485.874-.948 1.127-2.02 1.268-3.641.14-1.621 1.033-3.616 2.828-5.055 1.581-1.268 3.882-2.342 7.326-1.461 3.444.88 4.842 3.578 5.404 5.058.562 1.48.828 4.305-.788 7.018-1.617 2.713-4.288 3.602-5.94 3.673-1.651.07-2.9.795-3.674 1.711-.773.916-.913 1.656-1.054 3.277-.14 1.62-.931 3.646-3.25 5.443-2.32 1.797-5.32 1.644-7.046 1.234Z"/><path fill="#D3883E" d="M21.573 2.312c.204.147.39.299.337.406-.053.107-.27.227-.657.347-.387.12-1.16.468-1.431.638-.272.17-.667.28-.863.12a5.414 5.414 0 0 1-.274-.247 2.094 2.094 0 0 0-.206-.18c-.093-.063-.133-.152 0-.281.134-.13.943-.562 1.205-.682.262-.12.933-.326 1.213-.339.28-.013.471.071.676.218ZM25.122 5.527c-.3-.238-.647-.319-.879-.08-.343.33-1.063 1.031-1.203 1.208-.176.22-.378.537-.115.801.264.265 1.292 1.295 1.555 1.568.264.273.606.23.8.044.193-.185 1.036-1.013 1.212-1.224l.02-.024c.172-.206.381-.456.068-.804a62.09 62.09 0 0 0-1.458-1.489ZM29.31 10.557c.057-.194.272-.08.4.061.099.09.21.296.153.626-.057.33-.175.775-.334 1.176-.158.4-.57 1.176-.619 1.26-.048.083-.119.118-.224.043-.084-.06-.231-.242-.294-.325-.167-.194-.106-.428-.035-.542.034-.056.11-.218.198-.406.093-.199.199-.427.285-.59.167-.317.413-1.11.47-1.303ZM24.054 12.347c-.276-.245-.57-.386-.924-.116-.184.141-.323.254-.446.354-.113.092-.213.174-.324.257-.116.088-.271.19-.419.287a6.599 6.599 0 0 0-.37.254c-.173.135-.36.418-.18.63.18.212 1.117 1.139 1.303 1.267.186.129.571.393 1.065.039l.261-.186c.468-.332 1.028-.73 1.19-.908.192-.212.34-.457.07-.701-.27-.244-.93-.888-1.226-1.177ZM17.645 6.848c.316-.334.562-.132.834.168.216.243.588.612.891.913l.251.25c.317.317-.008.783-.228 1.012-.22.23-.72.996-.993 1.419-.248.385-.496.17-.698-.004l-.057-.05a9.5 9.5 0 0 1-.576-.595c-.21-.228-.426-.46-.566-.593-.3-.282-.159-.75 0-1.022.158-.273.825-1.163 1.142-1.498ZM8.833 18.994c.276.244.57.386.924.116.184-.141.322-.254.446-.354.113-.092.213-.174.324-.257.116-.088.271-.19.419-.287.146-.096.284-.187.37-.254.173-.135.359-.418.18-.63-.18-.212-1.117-1.139-1.303-1.267-.186-.13-.571-.393-1.065-.039l-.261.186c-.468.332-1.028.73-1.19.908-.192.212-.34.456-.07.7.27.245.93.889 1.226 1.178ZM2.805 20.984c-.057.194-.272.08-.4-.061-.099-.09-.21-.295-.153-.626.057-.33.176-.775.334-1.176.158-.4.57-1.175.62-1.26.047-.083.118-.118.223-.043.084.06.231.242.294.326.167.194.106.427.036.541-.035.056-.11.218-.199.407-.092.198-.199.426-.285.589-.167.317-.413 1.11-.47 1.303ZM7.295 26.142c.298.238.646.319.878.08.343-.33 1.063-1.032 1.204-1.208.175-.22.377-.537.114-.801a259.357 259.357 0 0 1-1.555-1.568c-.264-.273-.606-.23-.8-.044-.193.185-1.036 1.013-1.212 1.224l-.02.024c-.172.206-.38.456-.068.804.26.29 1.08 1.113 1.459 1.489ZM10.992 29.58c-.205-.147-.392-.299-.338-.406.053-.107.27-.227.658-.347.386-.12 1.16-.468 1.43-.638.272-.169.667-.28.863-.12.096.079.191.169.274.247.086.08.159.15.206.18.093.063.133.152 0 .282-.133.129-.942.561-1.205.681-.262.12-.933.326-1.213.339-.28.013-.471-.071-.675-.218ZM14.876 24.433c-.316.335-.562.132-.834-.167-.216-.244-.588-.612-.891-.913a73.713 73.713 0 0 1-.252-.25c-.316-.317.01-.784.229-1.013.22-.23.72-.995.993-1.418.248-.386.496-.17.698.003l.057.05c.112.093.34.34.576.596.21.227.425.46.566.593.299.282.158.748 0 1.021-.158.274-.825 1.163-1.142 1.498ZM15.693 17.598c.308.29.72.352.958.114.237-.238 1.168-1.171 1.353-1.348.184-.176.448-.58.131-.916l-.265-.284c-.37-.4-.898-.968-1.131-1.16-.3-.247-.668-.344-.923-.097a48.997 48.997 0 0 0-1.353 1.365c-.21.238-.483.582-.131.952.277.292.74.754 1.1 1.114.097.095.185.184.261.26Z"/></svg>
